motocrosskursk/img/position.svg

<svg width="16" height="18" viewBox="0 0 16 18" fill="none" xmlns="http://www.w3.org/2000/svg">
<path fill-rule="evenodd" clip-rule="evenodd" d="M5.308 1.50001H10.829C10.8863 1.50001 10.9433 1.50367 11 1.51101C13.2473 1.66817 14.9924 3.5332 15 5.78601V12.215C14.9917 14.5871 13.0641 16.5044 10.692 16.5H5.308C2.93551 16.5044 1.00772 14.5865 1 12.214V5.78601C1.00772 3.41353 2.93551 1.49558 5.308 1.50001Z" stroke="#F4520D" stroke-width="1.5" stroke-linecap="round" stroke-linejoin="round"/>
<path d="M15 6.53599C15.4142 6.53599 15.75 6.2002 15.75 5.78599C15.75 5.37177 15.4142 5.03599 15 5.03599V6.53599ZM11 5.78599H10.25C10.25 6.2002 10.5858 6.53599 11 6.53599V5.78599ZM11.75 1.51099C11.75 1.09677 11.4142 0.760986 11 0.760986C10.5858 0.760986 10.25 1.09677 10.25 1.51099H11.75ZM10 10.25C10.4142 10.25 10.75 9.9142 10.75 9.49999C10.75 9.08577 10.4142 8.74999 10 8.74999V10.25ZM4 8.74999C3.58579 8.74999 3.25 9.08577 3.25 9.49999C3.25 9.9142 3.58579 10.25 4 10.25V8.74999ZM7 7.24999C7.41421 7.24999 7.75 6.9142 7.75 6.49999C7.75 6.08577 7.41421 5.74999 7 5.74999V7.24999ZM4 5.74999C3.58579 5.74999 3.25 6.08577 3.25 6.49999C3.25 6.9142 3.58579 7.24999 4 7.24999V5.74999ZM11 13.25C11.4142 13.25 11.75 12.9142 11.75 12.5C11.75 12.0858 11.4142 11.75 11 11.75V13.25ZM4 11.75C3.58579 11.75 3.25 12.0858 3.25 12.5C3.25 12.9142 3.58579 13.25 4 13.25V11.75ZM15 5.03599H11V6.53599H15V5.03599ZM11.75 5.78599V1.51099H10.25V5.78599H11.75ZM10 8.74999H4V10.25H10V8.74999ZM7 5.74999H4V7.24999H7V5.74999ZM11 11.75H4V13.25H11V11.75Z" fill="#F4520D"/>
</svg>

<svg width="16" height="18" fill="none" xmlns="http://www.w3.org/2000/svg"><path clip-rule="evenodd" d="M5.308 1.5h5.521c.057 0 .114.004.171.011a4.3 4.3 0 014 4.275v6.429a4.3 4.3 0 01-4.308 4.285H5.308A4.3 4.3 0 011 12.214V5.786A4.3 4.3 0 015.308 1.5z" stroke="#F4520D" stroke-width="1.5" stroke-linecap="round" stroke-linejoin="round"/><path d="M15 6.536a.75.75 0 000-1.5v1.5zm-4-.75h-.75c0 .414.336.75.75.75v-.75zm.75-4.275a.75.75 0 00-1.5 0h1.5zM10 10.25a.75.75 0 000-1.5v1.5zm-6-1.5a.75.75 0 100 1.5v-1.5zm3-1.5a.75.75 0 000-1.5v1.5zm-3-1.5a.75.75 0 100 1.5v-1.5zm7 7.5a.75.75 0 000-1.5v1.5zm-7-1.5a.75.75 0 000 1.5v-1.5zm11-6.714h-4v1.5h4v-1.5zm-3.25.75V1.511h-1.5v4.275h1.5zM10 8.75H4v1.5h6v-1.5zm-3-3H4v1.5h3v-1.5zm4 6H4v1.5h7v-1.5z" fill="#F4520D"/></svg>
